P3
16 16
255
235 235 235
235 235 235
235 235 235
235 235 235
235 235 235
235 235 235
235 235 235
235 235 235
235 235 235
235 235 235
235 235 235
235 235 235
235 235 235
235 235 235
235 235 235
235 235 235
235 235 235
235 235 235
235 235 235
235 235 235
235 235 235
235 235 235
235 235 235
235 235 235
235 235 235
235 235 235
235 235 235
235 235 235
235 235 235
235 235 235
235 235 235
235 235 235
235 235 235
235 235 235
235 235 235
235 235 235
235 235 235
235 235 235
235 235 235
235 235 235
235 235 235
235 235 235
235 235 235
235 235 235
235 235 235
235 235 235
235 235 235
235 235 235
235 235 235
235 235 235
235 235 235
235 235 235
235 235 235
235 235 235
235 235 235
235 235 235
235 235 235
235 235 235
235 235 235
235 235 235
235 235 235
235 235 235
235 235 235
235 235 235
235 235 235
235 235 235
235 235 235
235 235 235
235 235 235
235 235 235
235 235 235
235 235 235
235 235 235
235 235 235
235 235 235
235 235 235
235 235 235
235 235 235
235 235 235
235 235 235
235 235 235
235 235 235
235 235 235
235 235 235
235 235 235
235 235 235
235 235 235
235 235 235
235 235 235
235 235 235
235 235 235
235 235 235
235 235 235
235 235 235
235 235 235
235 235 235
235 235 235
235 235 235
235 235 235
235 235 235
235 235 235
235 235 235
235 235 235
235 235 235
60 130 140
235 235 235
120 220 180
235 235 235
120 220 180
235 235 235
120 220 180
235 235 235
120 220 180
235 235 235
120 220 180
235 235 235
120 220 180
235 235 235
120 220 180
235 235 235
120 220 180
235 235 235
120 220 180
235 235 235
120 220 180
235 235 235
120 220 180
235 235 235
120 220 180
235 235 235
120 220 180
235 235 235
120 220 180
235 235 235
120 220 180
235 235 235
120 220 180
235 235 235
120 220 180
235 235 235
120 220 180
235 235 235
120 220 180
235 235 235
120 220 180
235 235 235
120 220 180
235 235 235
120 220 180
235 235 235
120 220 180
235 235 235
120 220 180
235 235 235
120 220 180
235 235 235
120 220 180
235 235 235
60 130 140
240 144 4
235 235 235
235 235 235
235 235 235
235 235 235
235 235 235
235 235 235
235 235 235
235 235 235
180 54 220
235 235 235
240 144 4
235 235 235
240 144 4
235 235 235
240 144 4
235 235 235
240 144 4
235 235 235
240 144 4
235 235 235
240 144 4
235 235 235
240 144 4
235 235 235
240 144 4
235 235 235
240 144 4
235 235 235
240 144 4
235 235 235
240 144 4
235 235 235
240 144 4
235 235 235
240 144 4
235 235 235
240 144 4
235 235 235
240 144 4
235 235 235
240 144 4
235 235 235
240 144 4
235 235 235
240 144 4
235 235 235
240 144 4
235 235 235
240 144 4
235 235 235
240 144 4
235 235 235
240 144 4
235 235 235
240 144 4
235 235 235
240 144 4
235 235 235
240 144 4
235 235 235
240 144 4
235 235 235
180 54 220
208 96 68
235 235 235
235 235 235
235 235 235
235 235 235
235 235 235
235 235 235
235 235 235
235 235 235
180 54 220
235 235 235
240 144 4
235 235 235
240 144 4
235 235 235
240 144 4
235 235 235
240 144 4
235 235 235
240 144 4
235 235 235
240 144 4
235 235 235
240 144 4
235 235 235
240 144 4
235 235 235
240 144 4
235 235 235
240 144 4
235 235 235
240 144 4
235 235 235
