P3
16 16
255
235 235 235
235 235 235
235 235 235
235 235 235
235 235 235
235 235 235
235 235 235
235 235 235
235 235 235
235 235 235
235 235 235
235 235 235
235 235 235
235 235 235
235 235 235
235 235 235
235 235 235
235 235 235
235 235 235
235 235 235
235 235 235
235 235 235
235 235 235
235 235 235
235 235 235
235 235 235
235 235 235
235 235 235
235 235 235
235 235 235
235 235 235
235 235 235
235 235 235
235 235 235
235 235 235
235 235 235
235 235 235
235 235 235
235 235 235
235 235 235
235 235 235
235 235 235
235 235 235
235 235 235
235 235 235
235 235 235
235 235 235
235 235 235
235 235 235
235 235 235
235 235 235
235 235 235
120 220 180
120 220 180
120 220 180
120 220 180
120 220 180
120 220 180
120 220 180
120 220 180
120 220 180
120 220 180
120 220 180
120 220 180
120 220 180
120 220 180
120 220 180
120 220 180
120 220 180
120 220 180
120 220 180
120 220 180
120 220 180
120 220 180
120 220 180
120 220 180
120 220 180
120 220 180
120 220 180
120 220 180
120 220 180
120 220 180
120 220 180
120 220 180
120 220 180
120 220 180
120 220 180
120 220 180
120 220 180
120 220 180
120 220 180
120 220 180
120 220 180
120 220 180
120 220 180
120 220 180
120 220 180
120 220 180
120 220 180
120 220 180
120 220 180
120 220 180
120 220 180
120 220 180
120 220 180
120 220 180
120 220 180
120 220 180
120 220 180
120 220 180
120 220 180
120 220 180
120 220 180
120 220 180
120 220 180
120 220 180
120 220 180
120 220 180
120 220 180
120 220 180
120 220 180
120 220 180
120 220 180
120 220 180
120 220 180
120 220 180
120 220 180
120 220 180
120 220 180
120 220 180
120 220 180
120 220 180
120 220 180
120 220 180
120 220 180
120 220 180
120 220 180
120 220 180
120 220 180
120 220 180
120 220 180
120 220 180
120 220 180
120 220 180
120 220 180
120 220 180
120 220 180
120 220 180
120 220 180
120 220 180
120 220 180
120 220 180
120 220 180
120 220 180
120 220 180
120 220 180
120 220 180
120 220 180
120 220 180
120 220 180
120 220 180
120 220 180
120 220 180
120 220 180
120 220 180
120 220 180
120 220 180
120 220 180
120 220 180
120 220 180
120 220 180
120 220 180
120 220 180
120 220 180
120 220 180
120 220 180
120 220 180
120 220 180
120 220 180
120 220 180
120 220 180
120 220 180
120 220 180
120 220 180
120 220 180
120 220 180
120 220 180
120 220 180
120 220 180
120 220 180
120 220 180
120 220 180
120 220 180
120 220 180
120 220 180
120 220 180
120 220 180
120 220 180
120 220 180
120 220 180
120 220 180
120 220 180
120 220 180
120 220 180
120 220 180
120 220 180
120 220 180
120 220 180
120 220 180
120 220 180
120 220 180
120 220 180
120 220 180
120 220 180
120 220 180
120 220 180
120 220 180
120 220 180
120 220 180
120 220 180
120 220 180
120 220 180
120 220 180
120 220 180
120 220 180
120 220 180
120 220 180
120 220 180
120 220 180
120 220 180
120 220 180
120 220 180
120 220 180
120 220 180
120 220 180
120 220 180
120 220 180
120 220 180
120 220 180
120 220 180
120 220 180
120 220 180
120 220 180
120 220 180
120 220 180
120 220 180
120 220 180
120 220 180
120 220 180
120 220 180
120 220 180
120 220 180
120 220 180
120 220 180
120 220 180
120 220 180
