P3
16 16
255
120 220 180
120 220 180
120 220 180
120 220 180
120 220 180
120 220 180
120 220 180
120 220 180
120 220 180
120 220 180
120 220 180
120 220 180
120 220 180
120 220 180
120 220 180
120 220 180
120 220 180
120 220 180
120 220 180
120 220 180
120 220 180
120 220 180
120 220 180
120 220 180
120 220 180
120 220 180
120 220 180
120 220 180
120 220 180
120 220 180
120 220 180
120 220 180
120 220 180
120 220 180
120 220 180
120 220 180
120 220 180
120 220 180
120 220 180
120 220 180
120 220 180
120 220 180
120 220 180
120 220 180
120 220 180
120 220 180
120 220 180
120 220 180
120 220 180
120 220 180
120 220 180
120 220 180
235 235 235
235 235 235
235 235 235
235 235 235
235 235 235
235 235 235
235 235 235
235 235 235
235 235 235
235 235 235
235 235 235
235 235 235
235 235 235
235 235 235
235 235 235
235 235 235
235 235 235
235 235 235
235 235 235
235 235 235
235 235 235
235 235 235
235 235 235
235 235 235
235 235 235
235 235 235
235 235 235
235 235 235
235 235 235
235 235 235
235 235 235
235 235 235
235 235 235
235 235 235
235 235 235
235 235 235
235 235 235
235 235 235
235 235 235
235 235 235
235 235 235
235 235 235
235 235 235
235 235 235
235 235 235
235 235 235
235 235 235
235 235 235
235 235 235
235 235 235
235 235 235
235 235 235
235 235 235
235 235 235
235 235 235
235 235 235
235 235 235
235 235 235
235 235 235
235 235 235
235 235 235
235 235 235
235 235 235
235 235 235
120 220 180
120 220 180
120 220 180
120 220 180
28 82 204
28 82 204
28 82 204
28 82 204
120 220 180
120 220 180
120 220 180
120 220 180
88 172 244
28 82 204
88 172 244
28 82 204
120 220 180
120 220 180
120 220 180
120 220 180
88 172 244
88 172 244
88 172 244
88 172 244
120 220 180
120 220 180
120 220 180
120 220 180
148 6 28
88 172 244
148 6 28
88 172 244
120 220 180
120 220 180
120 220 180
120 220 180
148 6 28
148 6 28
148 6 28
148 6 28
120 220 180
120 220 180
120 220 180
120 220 180
208 96 68
148 6 28
208 96 68
148 6 28
120 220 180
120 220 180
120 220 180
120 220 180
208 96 68
208 96 68
208 96 68
208 96 68
120 220 180
120 220 180
120 220 180
120 220 180
208 96 68
208 96 68
208 96 68
208 96 68
28 82 204
28 82 204
28 82 204
120 220 180
120 220 180
120 220 180
120 220 180
120 220 180
88 172 244
28 82 204
88 172 244
120 220 180
120 220 180
120 220 180
120 220 180
120 220 180
88 172 244
88 172 244
88 172 244
120 220 180
120 220 180
120 220 180
120 220 180
120 220 180
148 6 28
88 172 244
148 6 28
120 220 180
120 220 180
120 220 180
120 220 180
120 220 180
148 6 28
148 6 28
148 6 28
120 220 180
120 220 180
120 220 180
120 220 180
120 220 180
208 96 68
148 6 28
208 96 68
120 220 180
120 220 180
120 220 180
120 220 180
120 220 180
208 96 68
208 96 68
208 96 68
120 220 180
120 220 180
120 220 180
120 220 180
120 220 180
208 96 68
208 96 68
208 96 68
120 220 180
120 220 180
120 220 180
120 220 180
120 220 180
120 220 180
120 220 180
28 82 204
28 82 204
28 82 204
28 82 204
28 82 204
28 82 204
120 220 180
120 220 180
88 172 244
28 82 204
