P3
16 16
255
120 220 180
120 220 180
120 220 180
120 220 180
120 220 180
120 220 180
120 220 180
120 220 180
120 220 180
120 220 180
120 220 180
120 220 180
120 220 180
120 220 180
120 220 180
120 220 180
120 220 180
120 220 180
120 220 180
120 220 180
120 220 180
120 220 180
120 220 180
120 220 180
120 220 180
120 220 180
120 220 180
120 220 180
120 220 180
120 220 180
120 220 180
120 220 180
120 220 180
120 220 180
120 220 180
120 220 180
120 220 180
120 220 180
120 220 180
120 220 180
120 220 180
120 220 180
120 220 180
120 220 180
120 220 180
120 220 180
120 220 180
120 220 180
120 220 180
120 220 180
120 220 180
120 220 180
235 235 235
235 235 235
235 235 235
235 235 235
235 235 235
235 235 235
235 235 235
235 235 235
235 235 235
235 235 235
235 235 235
235 235 235
235 235 235
235 235 235
235 235 235
235 235 235
235 235 235
235 235 235
235 235 235
235 235 235
235 235 235
235 235 235
235 235 235
235 235 235
235 235 235
235 235 235
235 235 235
235 235 235
235 235 235
235 235 235
235 235 235
235 235 235
235 235 235
235 235 235
235 235 235
235 235 235
235 235 235
235 235 235
235 235 235
235 235 235
235 235 235
235 235 235
235 235 235
235 235 235
235 235 235
235 235 235
235 235 235
235 235 235
235 235 235
235 235 235
235 235 235
235 235 235
235 235 235
235 235 235
235 235 235
235 235 235
235 235 235
235 235 235
235 235 235
235 235 235
235 235 235
235 235 235
235 235 235
235 235 235
120 220 180
120 220 180
120 220 180
120 220 180
12 186 108
208 96 68
12 186 108
208 96 68
120 220 180
120 220 180
120 220 180
120 220 180
12 186 108
12 186 108
12 186 108
12 186 108
120 220 180
120 220 180
120 220 180
120 220 180
12 186 108
12 186 108
12 186 108
12 186 108
120 220 180
120 220 180
120 220 180
120 220 180
72 20 148
12 186 108
72 20 148
12 186 108
120 220 180
120 220 180
120 220 180
120 220 180
72 20 148
72 20 148
72 20 148
72 20 148
120 220 180
120 220 180
120 220 180
120 220 180
72 20 148
72 20 148
72 20 148
72 20 148
120 220 180
120 220 180
120 220 180
120 220 180
72 20 148
72 20 148
72 20 148
72 20 148
120 220 180
120 220 180
120 220 180
120 220 180
72 20 148
132 110 188
72 20 148
132 110 188
12 186 108
208 96 68
12 186 108
120 220 180
120 220 180
120 220 180
120 220 180
120 220 180
12 186 108
12 186 108
12 186 108
120 220 180
120 220 180
120 220 180
120 220 180
120 220 180
12 186 108
12 186 108
12 186 108
120 220 180
120 220 180
120 220 180
120 220 180
120 220 180
72 20 148
12 186 108
72 20 148
120 220 180
120 220 180
120 220 180
120 220 180
120 220 180
72 20 148
72 20 148
72 20 148
120 220 180
120 220 180
120 220 180
120 220 180
120 220 180
72 20 148
72 20 148
72 20 148
120 220 180
120 220 180
120 220 180
120 220 180
120 220 180
72 20 148
72 20 148
72 20 148
120 220 180
120 220 180
120 220 180
120 220 180
120 220 180
72 20 148
132 110 188
72 20 148
120 220 180
120 220 180
120 220 180
120 220 180
120 220 180
120 220 180
120 220 180
12 186 108
208 96 68
12 186 108
208 96 68
12 186 108
208 96 68
120 220 180
120 220 180
12 186 108
12 186 108
