P3
16 16
255
120 220 180
120 220 180
120 220 180
120 220 180
120 220 180
120 220 180
120 220 180
120 220 180
120 220 180
120 220 180
120 220 180
120 220 180
120 220 180
120 220 180
120 220 180
120 220 180
120 220 180
120 220 180
120 220 180
120 220 180
120 220 180
120 220 180
120 220 180
120 220 180
120 220 180
120 220 180
120 220 180
120 220 180
120 220 180
120 220 180
120 220 180
120 220 180
120 220 180
120 220 180
120 220 180
120 220 180
120 220 180
120 220 180
120 220 180
120 220 180
120 220 180
120 220 180
120 220 180
120 220 180
120 220 180
120 220 180
120 220 180
120 220 180
120 220 180
120 220 180
120 220 180
120 220 180
235 235 235
235 235 235
235 235 235
235 235 235
235 235 235
235 235 235
235 235 235
235 235 235
235 235 235
235 235 235
235 235 235
235 235 235
235 235 235
235 235 235
235 235 235
235 235 235
235 235 235
235 235 235
235 235 235
235 235 235
235 235 235
235 235 235
235 235 235
235 235 235
235 235 235
235 235 235
235 235 235
235 235 235
235 235 235
235 235 235
235 235 235
235 235 235
235 235 235
235 235 235
235 235 235
235 235 235
235 235 235
235 235 235
235 235 235
235 235 235
235 235 235
235 235 235
235 235 235
235 235 235
235 235 235
235 235 235
235 235 235
235 235 235
235 235 235
235 235 235
235 235 235
235 235 235
235 235 235
235 235 235
235 235 235
235 235 235
235 235 235
235 235 235
235 235 235
235 235 235
235 235 235
235 235 235
235 235 235
235 235 235
120 220 180
120 220 180
120 220 180
120 220 180
132 110 188
72 20 148
132 110 188
72 20 148
120 220 180
120 220 180
120 220 180
120 220 180
132 110 188
132 110 188
132 110 188
132 110 188
120 220 180
120 220 180
120 220 180
120 220 180
132 110 188
132 110 188
132 110 188
132 110 188
120 220 180
120 220 180
120 220 180
120 220 180
132 110 188
132 110 188
132 110 188
132 110 188
120 220 180
120 220 180
120 220 180
120 220 180
132 110 188
132 110 188
132 110 188
132 110 188
120 220 180
120 220 180
120 220 180
120 220 180
132 110 188
132 110 188
132 110 188
132 110 188
120 220 180
120 220 180
120 220 180
120 220 180
132 110 188
132 110 188
132 110 188
132 110 188
120 220 180
120 220 180
120 220 180
120 220 180
132 110 188
132 110 188
132 110 188
132 110 188
132 110 188
72 20 148
132 110 188
120 220 180
120 220 180
120 220 180
120 220 180
120 220 180
132 110 188
132 110 188
132 110 188
120 220 180
120 220 180
120 220 180
120 220 180
120 220 180
132 110 188
132 110 188
132 110 188
120 220 180
120 220 180
120 220 180
120 220 180
120 220 180
132 110 188
132 110 188
132 110 188
120 220 180
120 220 180
120 220 180
120 220 180
120 220 180
132 110 188
132 110 188
132 110 188
120 220 180
120 220 180
120 220 180
120 220 180
120 220 180
132 110 188
132 110 188
132 110 188
120 220 180
120 220 180
120 220 180
120 220 180
120 220 180
132 110 188
132 110 188
132 110 188
120 220 180
120 220 180
120 220 180
120 220 180
120 220 180
132 110 188
132 110 188
132 110 188
120 220 180
120 220 180
120 220 180
120 220 180
120 220 180
120 220 180
120 220 180
132 110 188
72 20 148
132 110 188
72 20 148
132 110 188
72 20 148
120 220 180
120 220 180
132 110 188
132 110 188
