P3
16 16
255
120 220 180
120 220 180
120 220 180
120 220 180
120 220 180
120 220 180
120 220 180
120 220 180
120 220 180
120 220 180
120 220 180
120 220 180
120 220 180
120 220 180
120 220 180
120 220 180
120 220 180
120 220 180
120 220 180
120 220 180
120 220 180
120 220 180
120 220 180
120 220 180
120 220 180
120 220 180
120 220 180
120 220 180
120 220 180
120 220 180
120 220 180
120 220 180
120 220 180
120 220 180
120 220 180
120 220 180
120 220 180
120 220 180
120 220 180
120 220 180
120 220 180
120 220 180
120 220 180
120 220 180
120 220 180
120 220 180
120 220 180
120 220 180
120 220 180
120 220 180
120 220 180
120 220 180
235 235 235
235 235 235
235 235 235
235 235 235
235 235 235
235 235 235
235 235 235
235 235 235
235 235 235
235 235 235
235 235 235
235 235 235
235 235 235
235 235 235
235 235 235
235 235 235
235 235 235
235 235 235
235 235 235
235 235 235
235 235 235
235 235 235
235 235 235
235 235 235
235 235 235
235 235 235
235 235 235
235 235 235
235 235 235
235 235 235
235 235 235
235 235 235
235 235 235
235 235 235
235 235 235
235 235 235
235 235 235
235 235 235
235 235 235
235 235 235
235 235 235
235 235 235
235 235 235
235 235 235
235 235 235
235 235 235
235 235 235
235 235 235
235 235 235
235 235 235
235 235 235
235 235 235
235 235 235
235 235 235
235 235 235
235 235 235
235 235 235
235 235 235
235 235 235
235 235 235
235 235 235
235 235 235
235 235 235
235 235 235
120 220 180
120 220 180
120 220 180
120 220 180
180 54 220
180 54 220
180 54 220
180 54 220
120 220 180
120 220 180
120 220 180
120 220 180
240 144 4
240 144 4
240 144 4
240 144 4
120 220 180
120 220 180
120 220 180
120 220 180
44 234 44
44 234 44
44 234 44
44 234 44
120 220 180
120 220 180
120 220 180
120 220 180
104 68 84
104 68 84
104 68 84
104 68 84
120 220 180
120 220 180
120 220 180
120 220 180
164 158 124
104 68 84
164 158 124
104 68 84
120 220 180
120 220 180
120 220 180
120 220 180
224 248 164
224 248 164
224 248 164
224 248 164
120 220 180
120 220 180
120 220 180
120 220 180
224 248 164
224 248 164
224 248 164
224 248 164
120 220 180
120 220 180
120 220 180
120 220 180
28 82 204
224 248 164
28 82 204
224 248 164
180 54 220
180 54 220
180 54 220
120 220 180
120 220 180
120 220 180
120 220 180
120 220 180
240 144 4
240 144 4
240 144 4
120 220 180
120 220 180
120 220 180
120 220 180
120 220 180
44 234 44
44 234 44
44 234 44
120 220 180
120 220 180
120 220 180
120 220 180
120 220 180
104 68 84
104 68 84
104 68 84
120 220 180
120 220 180
120 220 180
120 220 180
120 220 180
164 158 124
104 68 84
164 158 124
120 220 180
120 220 180
120 220 180
120 220 180
120 220 180
224 248 164
224 248 164
224 248 164
120 220 180
120 220 180
120 220 180
120 220 180
120 220 180
224 248 164
224 248 164
224 248 164
120 220 180
120 220 180
120 220 180
120 220 180
120 220 180
28 82 204
224 248 164
28 82 204
120 220 180
120 220 180
120 220 180
120 220 180
120 220 180
120 220 180
120 220 180
180 54 220
180 54 220
180 54 220
180 54 220
180 54 220
180 54 220
120 220 180
120 220 180
240 144 4
240 144 4
