P3
16 16
255
60 130 140
235 235 235
60 130 140
235 235 235
60 130 140
235 235 235
60 130 140
235 235 235
60 130 140
235 235 235
60 130 140
235 235 235
60 130 140
235 235 235
60 130 140
235 235 235
60 130 140
235 235 235
60 130 140
235 235 235
60 130 140
235 235 235
60 130 140
235 235 235
60 130 140
235 235 235
60 130 140
235 235 235
60 130 140
235 235 235
208 96 68
180 54 220
208 96 68
180 54 220
208 96 68
180 54 220
208 96 68
180 54 220
208 96 68
180 54 220
208 96 68
180 54 220
208 96 68
180 54 220
208 96 68
180 54 220
208 96 68
180 54 220
208 96 68
180 54 220
208 96 68
180 54 220
208 96 68
180 54 220
208 96 68
180 54 220
208 96 68
180 54 220
208 96 68
180 54 220
208 96 68
180 54 220
208 96 68
180 54 220
208 96 68
180 54 220
208 96 68
180 54 220
208 96 68
180 54 220
208 96 68
180 54 220
208 96 68
180 54 220
208 96 68
180 54 220
208 96 68
180 54 220
208 96 68
180 54 220
208 96 68
180 54 220
208 96 68
180 54 220
208 96 68
180 54 220
208 96 68
180 54 220
208 96 68
180 54 220
208 96 68
180 54 220
208 96 68
180 54 220
208 96 68
180 54 220
208 96 68
180 54 220
208 96 68
180 54 220
208 96 68
180 54 220
208 96 68
180 54 220
208 96 68
180 54 220
208 96 68
180 54 220
208 96 68
180 54 220
208 96 68
180 54 220
208 96 68
180 54 220
208 96 68
180 54 220
208 96 68
180 54 220
208 96 68
180 54 220
208 96 68
180 54 220
208 96 68
180 54 220
208 96 68
180 54 220
208 96 68
180 54 220
208 96 68
180 54 220
144 0 196
180 54 220
60 130 140
235 235 235
60 130 140
235 235 235
235 235 235
235 235 235
235 235 235
235 235 235
235 235 235
235 235 235
235 235 235
235 235 235
235 235 235
235 235 235
235 235 235
235 235 235
235 235 235
235 235 235
235 235 235
235 235 235
235 235 235
235 235 235
235 235 235
235 235 235
235 235 235
235 235 235
235 235 235
235 235 235
235 235 235
235 235 235
235 235 235
235 235 235
235 235 235
235 235 235
235 235 235
235 235 235
235 235 235
235 235 235
235 235 235
235 235 235
235 235 235
235 235 235
235 235 235
235 235 235
235 235 235
235 235 235
235 235 235
235 235 235
235 235 235
235 235 235
235 235 235
235 235 235
235 235 235
235 235 235
235 235 235
235 235 235
235 235 235
235 235 235
235 235 235
235 235 235
235 235 235
235 235 235
235 235 235
235 235 235
235 235 235
235 235 235
235 235 235
235 235 235
235 235 235
235 235 235
235 235 235
235 235 235
235 235 235
235 235 235
235 235 235
235 235 235
235 235 235
235 235 235
235 235 235
235 235 235
235 235 235
235 235 235
235 235 235
235 235 235
235 235 235
235 235 235
235 235 235
235 235 235
235 235 235
235 235 235
235 235 235
235 235 235
235 235 235
235 235 235
235 235 235
235 235 235
235 235 235
235 235 235
235 235 235
235 235 235
235 235 235
235 235 235
235 235 235
235 235 235
235 235 235
235 235 235
235 235 235
235 235 235
235 235 235
235 235 235
235 235 235
235 235 235
60 130 140
235 235 235
60 130 140
235 235 235
60 130 140
235 235 235
60 130 140
235 235 235
60 130 140
235 235 235
60 130 140
235 235 235
