P3
16 16
255
235 235 235
235 235 235
235 235 235
235 235 235
235 235 235
235 235 235
235 235 235
235 235 235
235 235 235
235 235 235
235 235 235
235 235 235
235 235 235
235 235 235
235 235 235
235 235 235
235 235 235
235 235 235
235 235 235
235 235 235
235 235 235
235 235 235
235 235 235
235 235 235
235 235 235
235 235 235
235 235 235
235 235 235
60 130 140
235 235 235
120 220 180
235 235 235
180 54 220
235 235 235
240 144 4
235 235 235
44 234 44
235 235 235
120 220 180
235 235 235
180 54 220
235 235 235
240 144 4
235 235 235
44 234 44
235 235 235
120 220 180
235 235 235
180 54 220
235 235 235
240 144 4
235 235 235
44 234 44
235 235 235
120 220 180
235 235 235
180 54 220
235 235 235
240 144 4
235 235 235
44 234 44
235 235 235
120 220 180
235 235 235
180 54 220
235 235 235
240 144 4
235 235 235
44 234 44
235 235 235
120 220 180
235 235 235
180 54 220
235 235 235
240 144 4
235 235 235
44 234 44
235 235 235
120 220 180
235 235 235
180 54 220
235 235 235
240 144 4
235 235 235
44 234 44
235 235 235
120 220 180
235 235 235
180 54 220
235 235 235
240 144 4
235 235 235
44 234 44
235 235 235
120 220 180
235 235 235
180 54 220
235 235 235
240 144 4
235 235 235
44 234 44
235 235 235
120 220 180
235 235 235
180 54 220
235 235 235
240 144 4
235 235 235
44 234 44
235 235 235
120 220 180
235 235 235
180 54 220
235 235 235
240 144 4
235 235 235
44 234 44
235 235 235
120 220 180
235 235 235
180 54 220
235 235 235
240 144 4
235 235 235
44 234 44
235 235 235
120 220 180
235 235 235
180 54 220
235 235 235
235 235 235
235 235 235
235 235 235
235 235 235
235 235 235
235 235 235
235 235 235
235 235 235
235 235 235
235 235 235
235 235 235
235 235 235
235 235 235
235 235 235
235 235 235
235 235 235
235 235 235
235 235 235
235 235 235
235 235 235
235 235 235
235 235 235
235 235 235
235 235 235
235 235 235
235 235 235
235 235 235
235 235 235
235 235 235
235 235 235
235 235 235
235 235 235
235 235 235
235 235 235
235 235 235
235 235 235
235 235 235
235 235 235
235 235 235
235 235 235
235 235 235
235 235 235
235 235 235
235 235 235
235 235 235
235 235 235
235 235 235
235 235 235
235 235 235
235 235 235
235 235 235
235 235 235
235 235 235
235 235 235
235 235 235
235 235 235
235 235 235
235 235 235
235 235 235
235 235 235
235 235 235
235 235 235
235 235 235
235 235 235
235 235 235
235 235 235
235 235 235
235 235 235
235 235 235
235 235 235
235 235 235
235 235 235
235 235 235
235 235 235
235 235 235
235 235 235
235 235 235
235 235 235
235 235 235
235 235 235
235 235 235
235 235 235
235 235 235
235 235 235
235 235 235
235 235 235
235 235 235
235 235 235
235 235 235
235 235 235
235 235 235
235 235 235
235 235 235
235 235 235
235 235 235
235 235 235
235 235 235
235 235 235
235 235 235
235 235 235
235 235 235
235 235 235
235 235 235
235 235 235
235 235 235
235 235 235
235 235 235
235 235 235
235 235 235
235 235 235
235 235 235
235 235 235
235 235 235
235 235 235
235 235 235
235 235 235
235 235 235
235 235 235
235 235 235
60 130 140
60 130 140
60 130 140
120 220 180
60 130 140
180 54 220
60 130 140
